static/assets/img/icons/theme/code/spy.svg

<svg height="24" viewBox="0 0 24 24" width="24" xmlns="http://www.w3.org/2000/svg"><g fill="none" fill-rule="evenodd"><path d="m0 0h24v24h-24z" opacity="0"/><g fill="#000"><path d="m12 3c4.418278 0 8 3.581722 8 8v10c0 .5522847-.4477153 1-1 1h-14c-.55228475 0-1-.4477153-1-1v-10c0-4.418278 3.581722-8 8-8zm-3 7c-1.65685425 0-3 1.3431458-3 3s1.34314575 3 3 3h6c1.6568542 0 3-1.3431458 3-3s-1.3431458-3-3-3z"/><path d="m15 14c-.5522847 0-1-.4477153-1-1s.4477153-1 1-1 1 .4477153 1 1-.4477153 1-1 1zm-6 0c-.55228475 0-1-.4477153-1-1s.44771525-1 1-1 1 .4477153 1 1-.44771525 1-1 1z" opacity=".3"/></g></g></svg>

<svg width="24px" height="24px" viewBox="0 0 24 24" version="1.1" xmlns="http://www.w3.org/2000/svg" xmlns:xlink="http://www.w3.org/1999/xlink">
    <title>Icon For Spy</title>
    <g stroke="none" stroke-width="1" fill="none" fill-rule="evenodd">
        <rect opacity="0" x="0" y="0" width="24" height="24"></rect>
        <path d="M12,3 C16.418278,3 20,6.581722 20,11 L20,21 C20,21.5522847 19.5522847,22 19,22 L5,22 C4.44771525,22 4,21.5522847 4,21 L4,11 C4,6.581722 7.581722,3 12,3 Z M9,10 C7.34314575,10 6,11.3431458 6,13 C6,14.6568542 7.34314575,16 9,16 L15,16 C16.6568542,16 18,14.6568542 18,13 C18,11.3431458 16.6568542,10 15,10 L9,10 Z" fill="#000000"></path>
        <path d="M15,14 C14.4477153,14 14,13.5522847 14,13 C14,12.4477153 14.4477153,12 15,12 C15.5522847,12 16,12.4477153 16,13 C16,13.5522847 15.5522847,14 15,14 Z M9,14 C8.44771525,14 8,13.5522847 8,13 C8,12.4477153 8.44771525,12 9,12 C9.55228475,12 10,12.4477153 10,13 C10,13.5522847 9.55228475,14 9,14 Z" fill="#000000" opacity="0.3"></path>
    </g>
</svg>
